X: 1
T: Oj Savice    [C]
O: Croatia
R: waltz
M: 3/4
L: 1/8
K: C
[|\
DE C4 | [E2C2] [G4E4] | [AF][GE] {G}[F3D3] [EC] | [FD][EC] [D3B,3] [EC] | [GE][EC] [F3D3] [GE] |
w: 1.~Oj* Sa- Oj Sa-vi-*ce* ti-*ja* vo-*do*
(3[EC2]DE [D4B,4] | [FD][GE] [A3F3] [GE] | [GE][EC] [F3D3] [GE] | (3[EC2]DE [D4B,4] |]
w: lad-**na, ti-*ja* vo-*do* lad-**na.
%
W: 2. Preve prevezi me tamo i ovamo, tamo i ovamo.
W: 3. Tamo tamo mi je selo umiljeno, selo umiljeno.
W: 4. I u i u selu najljep\vsa djevojka, najljep\vsa djevojka.
W:
W: Oh Sava, carry me across your quiet, cool water.
W: There is my dear village, and in that village, the prettiest girl.

%%sep 1 1 500
%%sep 1 1 500

